X: 402
T: Xin nongcun
L: 1/16
M: 2/4
K: G
d2 d2 e d B A [I:setbarnb 1]| 
G F E GA4 | 
d2 d2 e d B A | 
G F E GA4 | 
A2 d2 e d B A | 
G2 D2 G2 F E | 
D D D E F2 A E | 
D8 |]

@@@ Tune index: 9276
